X:894
M:3/4
L:1/8
K:G
|:g3 f fe|c4 Ac   |e3 d dB |(B/c/B/A/) B2G2-  |
G2 B2 d2 |ce ce A2|F2 A2 d2|Bd Bd G2          |
g3 f fe  |c4 Ac   |e3 d dB |(B/c/B/A/) B2G2-  |
G2 B2 d2 |ce ce A2|D2 f2 f2|1(g/a/g/f/) g2 Bd:|2(g/a/g/f/) g4|]
(:musicend:)

(:music:)
